/* XPM */
static char * maximize_toggled_prelight_xpm[] = {
"24 24 3 1",
" 	c None",
".	c #808080 s inactive_color_1",
"+	c #000000 s inactive_shadow_1",
"                        ",
"                        ",
"                        ",
"                        ",
"                        ",
"                        ",
"........................",
"........................",
"........++++++++........",
"........++++++++........",
"..............++........",
"........+++++.++........",
"........+++++.++........",
"........++.++.++........",
"........+++++.++........",
"........+++++.++........",
"........................",
"........................",
"                        ",
"                        ",
"                        ",
"                        ",
"                        ",
"                        "};
