/* XPM */
static char * menu_prelight_xpm[] = {
"24 24 3 1",
" 	c None",
".	c #808080 s active_color_1",
"+	c #000000 s active_shadow_1",
"                        ",
"                        ",
"                        ",
"                        ",
"                        ",
"                        ",
"........................",
"........................",
"........................",
"........................",
"........................",
"++++++++++++++++++++++++",
"++++++++++++++++++++++++",
"........................",
"........................",
"........................",
"........................",
"........................",
"                        ",
"                        ",
"                        ",
"                        ",
"                        ",
"                        "};
